X: 35846
T: Sam And Paul's Old Time
R: polka
M: 2/4
K: Gmajor
BA GG|BA GG|GA Bd|BG A2|
BA GG|BA GG|GA Bd|BA G2:|
Bd ee|ed BG|Bd ea|ge d2|
Bd ee|ed BG|GA Bd|BA G2:|

